X:1
T:Mine, Still Mine
T:Mine, Still Mine
T:Joseph Lincoln Hall
T:Eliza Edmunds Hewitt, 1919
T:Public Domain Courtesy of the Cyber Hymnal™
C:Joseph Lincoln Hall
Z:Public Domain
Z:Courtesy of the Cyber Hymnal™
%%score ( 1 2 ) ( 3 4 )
L:1/8
Q:1/4=110
M:4/4
K:G
V:1 treble 
V:2 treble 
V:3 bass 
V:4 bass 
V:1
 D2 | D3 [DB] [DF]2 [DG]2 | [EA]2 [CE]4 F>E | (z2 C>C C2) [Ec]2 | B6 D2 | D3 [DB] [DF]2 [DG]2 | %6
w: 1.~Thro’|scenes of joy or|sor- row, Je- sus|* * * still|* is|mine; Thro’ ev- ’ry|
w: 2.~Thro’|earth- ly trib- u-|la- tion, Je- sus|* * * still|* is|mine; My strength and|
w: 3.~Tho’|lost, some fleet- ing|trea- sure, Je- sus|* * * still|* is|mine; With love be-|
w: 4.~My|Shep- herd goes be-|fore me, Je- sus|* * * still|* is|mine; Be- yond the|
 [EA]2 [CE]4 F>E | (z2 [CA]2) x6 | G6 ||"^Refrain" [Gd]2 | [Gd]3 [GB] [Fc]2 [GB]2 | %11
w: new to- mor- row,||He|will|still be mine. *|
w: con- so- la- tion,||He|is|mine, still mine. My|
w: yond all mea- sure,||He|is|mine, still mine. *|
w: vale, His glo- ry!||He|will|still be mine. *|
 [GB]2 [FA]4 [Ac]2 | [Ac]3 [Ac] [GB]2 [FA]2 | [GB]6 [Gd]2 | [Gd]3 [GB] [Fc]2 [GB]2 | %15
w: ||||
w: Sav- ior fail-|eth nev- er; O|how His|glo- ries shine, I’ll|
w: ||||
w: ||||
 [EA]2 [CE]4 F>E | (z2 C2) [CA]2 x2 | G6 |] %18
w: |||
w: sing it out for-|* ev-||
w: |||
w: |||
V:2
 D2 | D3 x5 | x8 | E6 x2 | (D2 G2 G2) D2 | D3 x5 | x8 | (D6 C>C C2) | (B,2 C2 B,2) || x2 | x8 | %11
 x8 | x8 | x8 | x8 | x8 | D6 C>C | (B,2 C2 B,2) |] %18
V:3
 [G,B,]2 | [G,B,]3 [G,B,] [A,C]2 [G,B,]2 | [C,C]2 [C,G,]4 z2 | z2 ([D,F,]>[D,F,]) [D,F,]2 [D,F,]2 | %4
w: ~|~ ~ ~ ~|~ ~|~ * ~ ~|
 G,2 [G,D]2 [G,D]2 [G,B,]2 | [G,B,]3 [G,B,] [A,C]2 [G,B,]2 | [C,C]2 [C,G,]4 z2 | %7
w: ~ ~ ~ ~|~ ~ ~ ~|~ ~|
 z2 [D,F,]>[D,F,] [D,F,]2 [D,F,]2 x2 | (G,2 E,2 D,2) || [G,B,]2 | [G,B,]3 [G,D] [A,D]2 [G,D]2 | %11
w: ~ ~ ~ ~|~ * *|~|~ ~ ~ ~|
 [D,D]2 [D,D]4 [D,D]2 | [D,D]3 [D,D] [D,D]2 [D,D]2 | [G,D]2 [G,D]2 [G,D]2 [G,B,]2 | %14
w: ~ ~ ~|~ ~ ~ ~|glo- ries shine, ~|
 [G,B,]3 [G,D] [A,D]2 [G,D]2 | [C,C]2 [C,G,]4 z2 | z2 [D,F,]>[D,F,] [D,F,]2 [D,F,]2 | %17
w: ~ ~ ~ ~|~ ~|He is mine ~|
 (G,2 E,2 D,2) |] %18
w: ~ * *|
V:4
 x2 | x8 | x8 | x8 | G,2 x6 | x8 | x8 | x10 | G,,6 || x2 | x8 | x8 | x8 | x8 | x8 | x8 | x8 | %17
 G,,6 |] %18

